public/svg/book.svg

<?xml version="1.0" encoding="utf-8"?>
<!-- Uploaded to: SVG Repo, www.svgrepo.com, Generator: SVG Repo Mixer Tools -->
<svg fill="#000000" width="800px" height="800px" viewBox="0 0 32 32" version="1.1" xmlns="http://www.w3.org/2000/svg">
<title>book</title>
<path d="M0 23.008v-17.984q0-1.024 0.48-1.888t1.28-1.44q1.024-0.672 2.24-0.672 0.736 0 1.472 0.256l10.016 4q0.064 0.032 0.512 0.32 0.448-0.288 0.512-0.32l10.016-4q0.736-0.256 1.472-0.256 1.248 0 2.24 0.672 0.832 0.576 1.312 1.44t0.448 1.888v17.984q0 1.248-0.672 2.24t-1.856 1.472l-9.984 4q-0.736 0.288-1.472 0.288-1.024 0-2.016-0.576-0.992 0.576-1.984 0.576-0.768 0-1.504-0.288l-9.984-4q-1.152-0.448-1.824-1.472t-0.704-2.24zM4 23.008l10.016 4v-17.984l-10.016-4v17.984zM6.016 21.824v-2.016l5.984 2.4v2.016zM6.016 17.824v-2.016l5.984 2.4v2.016zM6.016 13.824v-2.016l5.984 2.4v2.016zM6.016 9.824v-2.016l5.984 2.4v2.016zM18.016 27.008l9.984-4v-17.984l-9.984 4v17.984zM20 24.224v-2.016l6.016-2.4v2.016zM20 20.224v-2.016l6.016-2.4v2.016zM20 16.224v-2.016l6.016-2.4v2.016zM20 12.224v-2.016l6.016-2.4v2.016z"></path>
</svg>

<svg xmlns="http://www.w3.org/2000/svg" width="800" height="800" viewBox="0 0 32 32"><path d="M0 23.008V5.024Q0 4 .48 3.136t1.28-1.44Q2.784 1.024 4 1.024q.736 0 1.472.256l10.016 4q.064.032.512.32.448-.288.512-.32l10.016-4q.736-.256 1.472-.256 1.248 0 2.24.672.832.576 1.312 1.44T32 5.024v17.984q0 1.248-.672 2.24t-1.856 1.472l-9.984 4q-.736.288-1.472.288-1.024 0-2.016-.576-.992.576-1.984.576-.768 0-1.504-.288l-9.984-4q-1.152-.448-1.824-1.472T0 23.008zm4 0 10.016 4V9.024L4 5.024v17.984zm2.016-1.184v-2.016l5.984 2.4v2.016zm0-4v-2.016l5.984 2.4v2.016zm0-4v-2.016l5.984 2.4v2.016zm0-4V7.808l5.984 2.4v2.016zm12 17.184 9.984-4V5.024l-9.984 4v17.984zM20 24.224v-2.016l6.016-2.4v2.016zm0-4v-2.016l6.016-2.4v2.016zm0-4v-2.016l6.016-2.4v2.016zm0-4v-2.016l6.016-2.4v2.016z"/></svg>
